ES3T1/39/aimg/it-2.svg

<svg clip-rule="evenodd" fill-rule="evenodd" stroke-linejoin="round" stroke-miterlimit="2" viewBox="0 0 572 43" xmlns="http://www.w3.org/2000/svg"><g fill="#231f20" fill-rule="nonzero"><path d="m.093 0v-.723h.103v.646h.325v.077z" transform="matrix(53.099209146 0 0 53.099240352 -4.722237565 41.57659312)"/><path d="m.37-.067c-.058.053-.113.079-.167.079-.044 0-.08-.014-.109-.041-.029-.028-.044-.062-.044-.104 0-.058.025-.103.073-.134.049-.031.119-.046.21-.046h.022v-.064c0-.062-.031-.093-.094-.093-.051 0-.106.016-.165.047v-.079c.065-.027.126-.04.182-.04.06 0 .103.013.131.04.029.027.043.068.043.125v.24c0 .055.017.082.05.082.005 0 .011 0 .019-.002l.007.054c-.022.01-.046.015-.072.015-.045 0-.074-.026-.086-.079zm-.015-.053v-.137l-.032-.001c-.052 0-.095.01-.128.03-.032.02-.049.047-.049.079 0 .023.009.043.025.059s.036.024.059.024c.041 0 .082-.018.125-.054z" transform="matrix(53.099209146 0 0 53.099240352 19.800282053 41.57659312)"/><path d="m.206 0-.197-.53h.096l.154.412.163-.412h.09l-.21.53z" transform="matrix(53.099209146 0 0 53.099240352 45.333635813 41.57659312)"/><path d="m.37-.067c-.058.053-.113.079-.167.079-.044 0-.08-.014-.109-.041-.029-.028-.044-.062-.044-.104 0-.058.025-.103.073-.134.049-.031.119-.046.21-.046h.022v-.064c0-.062-.031-.093-.094-.093-.051 0-.106.016-.165.047v-.079c.065-.027.126-.04.182-.04.06 0 .103.013.131.04.029.027.043.068.043.125v.24c0 .055.017.082.05.082.005 0 .011 0 .019-.002l.007.054c-.022.01-.046.015-.072.015-.045 0-.074-.026-.086-.079zm-.015-.053v-.137l-.032-.001c-.052 0-.095.01-.128.03-.032.02-.049.047-.049.079 0 .023.009.043.025.059s.036.024.059.024c.041 0 .082-.018.125-.054z" transform="matrix(53.099209146 0 0 53.099240352 69.026571434 41.57659312)"/><path d="m.255.012c-.048 0-.087-.014-.114-.042s-.041-.067-.041-.116v-.312h-.066v-.072h.066v-.096l.096-.01v.106h.139v.072h-.139v.294c0 .069.03.104.09.104.013 0 .028-.002.047-.006v.066c-.03.008-.056.012-.078.012z" transform="matrix(53.099209146 0 0 53.099240352 107.570768936 41.57659312)"/><path d="m.428 0v-.1c-.051.075-.113.112-.186.112-.047 0-.083-.014-.111-.043-.027-.03-.041-.069-.041-.118v-.381h.097v.349c0 .04.005.068.017.085.011.017.031.025.058.025.058 0 .114-.038.166-.116v-.343h.096v.53z" transform="matrix(53.099209146 0 0 53.099240352 123.641198459 41.57659312)"/><path d="m.237.012c-.044 0-.098-.01-.16-.031v-.088c.062.031.117.047.164.047.027 0 .05-.008.069-.023.018-.014.027-.033.027-.056 0-.033-.026-.06-.077-.081l-.056-.024c-.083-.035-.124-.084-.124-.149 0-.046.016-.083.049-.109.032-.027.077-.04.134-.04.03 0 .066.004.11.012l.02.004v.08c-.054-.016-.096-.024-.128-.024-.062 0-.093.023-.093.068 0 .029.024.053.071.073l.046.019c.052.023.09.046.111.07.022.025.033.056.033.093 0 .046-.018.084-.055.114-.037.03-.084.045-.141.045z" transform="matrix(53.099209146 0 0 53.099240352 152.80497179 41.57659312)"/><path d="m.096 0v-.53h.096v.099c.047-.074.107-.111.181-.111.071 0 .119.037.145.111.046-.074.105-.111.178-.111.047 0 .083.013.109.041.025.027.038.066.038.115v.386h-.096v-.371c0-.06-.024-.09-.072-.09-.05 0-.102.035-.157.106v.355h-.097v-.371c0-.06-.024-.091-.073-.091-.048 0-.1.036-.156.107v.355z" transform="matrix(53.099209146 0 0 53.099240352 189.09250082 41.57659312)"/><path d="m.37-.067c-.058.053-.113.079-.167.079-.044 0-.08-.014-.109-.041-.029-.028-.044-.062-.044-.104 0-.058.025-.103.073-.134.049-.031.119-.046.21-.046h.022v-.064c0-.062-.031-.093-.094-.093-.051 0-.106.016-.165.047v-.079c.065-.027.126-.04.182-.04.06 0 .103.013.131.04.029.027.043.068.043.125v.24c0 .055.017.082.05.082.005 0 .011 0 .019-.002l.007.054c-.022.01-.046.015-.072.015-.045 0-.074-.026-.086-.079zm-.015-.053v-.137l-.032-.001c-.052 0-.095.01-.128.03-.032.02-.049.047-.049.079 0 .023.009.043.025.059s.036.024.059.024c.041 0 .082-.018.125-.054z" transform="matrix(53.099209146 0 0 53.099240352 234.87587078 41.57659312)"/><path d="m.096 0v-.53h.096v.099c.051-.074.113-.111.187-.111.046 0 .082.015.11.044.027.029.041.068.041.117v.381h-.096v-.35c0-.039-.006-.067-.018-.084-.011-.017-.03-.025-.057-.025-.059 0-.115.039-.167.116v.343z" transform="matrix(53.099209146 0 0 53.099240352 260.40922454 41.57659312)"/><path d="m.304.012c-.076 0-.137-.025-.182-.075-.045-.051-.068-.118-.068-.202 0-.085.023-.153.068-.203.046-.049.107-.074.185-.074s.14.025.185.074c.045.05.068.117.068.202 0 .086-.023.155-.068.204-.046.049-.109.074-.188.074zm.001-.072c.102 0 .153-.069.153-.206 0-.136-.05-.204-.151-.204-.1 0-.15.068-.15.205s.049.205.148.205z" transform="matrix(53.099209146 0 0 53.099240352 289.57174787 41.57659312)"/><path d="m.237.012c-.044 0-.098-.01-.16-.031v-.088c.062.031.117.047.164.047.027 0 .05-.008.069-.023.018-.014.027-.033.027-.056 0-.033-.026-.06-.077-.081l-.056-.024c-.083-.035-.124-.084-.124-.149 0-.046.016-.083.049-.109.032-.027.077-.04.134-.04.03 0 .066.004.11.012l.02.004v.08c-.054-.016-.096-.024-.128-.024-.062 0-.093.023-.093.068 0 .029.024.053.071.073l.046.019c.052.023.09.046.111.07.022.025.033.056.033.093 0 .046-.018.084-.055.114-.037.03-.084.045-.141.045z" transform="matrix(53.099209146 0 0 53.099240352 318.4009376 41.57659312)"/><path d="m.303.012c-.071 0-.131-.026-.178-.079s-.071-.12-.071-.201c0-.086.024-.154.07-.202.047-.048.112-.072.196-.072.041 0 .087.006.138.017v.081c-.054-.016-.098-.024-.132-.024-.049 0-.089.018-.119.055s-.044.086-.044.148c0 .059.015.108.045.144.031.037.071.056.121.056.044 0 .089-.012.135-.034v.083c-.062.019-.116.028-.161.028z" transform="matrix(53.099209146 0 0 53.099240352 354.68846663 41.57659312)"/><path d="m.304.012c-.076 0-.137-.025-.182-.075-.045-.051-.068-.118-.068-.202 0-.085.023-.153.068-.203.046-.049.107-.074.185-.074s.14.025.185.074c.045.05.068.117.068.202 0 .086-.023.155-.068.204-.046.049-.109.074-.188.074zm.001-.072c.102 0 .153-.069.153-.206 0-.136-.05-.204-.151-.204-.1 0-.15.068-.15.205s.049.205.148.205z" transform="matrix(53.099209146 0 0 53.099240352 378.09681869 41.57659312)"/><path d="m.096 0v-.53h.096v.099c.051-.074.113-.111.187-.111.046 0 .082.015.11.044.027.029.041.068.041.117v.381h-.096v-.35c0-.039-.006-.067-.018-.084-.011-.017-.03-.025-.057-.025-.059 0-.115.039-.167.116v.343z" transform="matrix(53.099209146 0 0 53.099240352 406.92184175 41.57659312)"/><path d="m.303.012c-.071 0-.131-.026-.178-.079s-.071-.12-.071-.201c0-.086.024-.154.07-.202.047-.048.112-.072.196-.072.041 0 .087.006.138.017v.081c-.054-.016-.098-.024-.132-.024-.049 0-.089.018-.119.055s-.044.086-.044.148c0 .059.015.108.045.144.031.037.071.056.121.056.044 0 .089-.012.135-.034v.083c-.062.019-.116.028-.161.028z" transform="matrix(53.099209146 0 0 53.099240352 449.09687549 41.57659312)"/><path d="m.096-.771h.096v.771h-.096z" transform="matrix(53.099209146 0 0 53.099240352 472.50522755 41.57659312)"/><path d="m.304.012c-.076 0-.137-.025-.182-.075-.045-.051-.068-.118-.068-.202 0-.085.023-.153.068-.203.046-.049.107-.074.185-.074s.14.025.185.074c.045.05.068.117.068.202 0 .086-.023.155-.068.204-.046.049-.109.074-.188.074zm.001-.072c.102 0 .153-.069.153-.206 0-.136-.05-.204-.151-.204-.1 0-.15.068-.15.205s.049.205.148.205z" transform="matrix(53.099209146 0 0 53.099240352 484.06357013 41.57659312)"/><path d="m.096 0v-.53h.096v.099c.038-.074.094-.111.166-.111.01 0 .02.001.031.002v.09c-.016-.005-.031-.008-.044-.008-.061 0-.112.036-.153.108v.35z" transform="matrix(53.099209146 0 0 53.099240352 512.88859319 41.57659312)"/><path d="m.304.012c-.076 0-.137-.025-.182-.075-.045-.051-.068-.118-.068-.202 0-.085.023-.153.068-.203.046-.049.107-.074.185-.074s.14.025.185.074c.045.05.068.117.068.202 0 .086-.023.155-.068.204-.046.049-.109.074-.188.074zm.001-.072c.102 0 .153-.069.153-.206 0-.136-.05-.204-.151-.204-.1 0-.15.068-.15.205s.049.205.148.205z" transform="matrix(53.099209146 0 0 53.099240352 530.82610754 41.57659312)"/><path d="m.098-.121h.121v.121h-.121z" transform="matrix(53.099209146 0 0 53.099240352 559.6511306 41.57659312)"/></g></svg>

<?xml version="1.0" encoding="UTF-8" standalone="no"?>
<!DOCTYPE svg PUBLIC "-//W3C//DTD SVG 1.1//EN" "http://www.w3.org/Graphics/SVG/1.1/DTD/svg11.dtd">
<svg width="100%" height="100%" viewBox="0 0 572 43" version="1.1" xmlns="http://www.w3.org/2000/svg" xmlns:xlink="http://www.w3.org/1999/xlink" xml:space="preserve" xmlns:serif="http://www.serif.com/" style="fill-rule:evenodd;clip-rule:evenodd;stroke-linejoin:round;stroke-miterlimit:2;">
    <g transform="matrix(1,0,0,1,-244,-2261)">
        <g transform="matrix(4.16667,0,0,1.51248,-26.2662,1667.76)">
            <g transform="matrix(12.7438,0,0,35.1074,63.7305,419.719)">
                <path d="M0.093,0L0.093,-0.723L0.196,-0.723L0.196,-0.077L0.521,-0.077L0.521,0L0.093,0Z" style="fill:rgb(35,31,32);fill-rule:nonzero;"/>
            </g>
            <g transform="matrix(12.7438,0,0,35.1074,69.6159,419.719)">
                <path d="M0.37,-0.067C0.312,-0.014 0.257,0.012 0.203,0.012C0.159,0.012 0.123,-0.002 0.094,-0.029C0.065,-0.057 0.05,-0.091 0.05,-0.133C0.05,-0.191 0.075,-0.236 0.123,-0.267C0.172,-0.298 0.242,-0.313 0.333,-0.313L0.355,-0.313L0.355,-0.377C0.355,-0.439 0.324,-0.47 0.261,-0.47C0.21,-0.47 0.155,-0.454 0.096,-0.423L0.096,-0.502C0.161,-0.529 0.222,-0.542 0.278,-0.542C0.338,-0.542 0.381,-0.529 0.409,-0.502C0.438,-0.475 0.452,-0.434 0.452,-0.377L0.452,-0.137C0.452,-0.082 0.469,-0.055 0.502,-0.055C0.507,-0.055 0.513,-0.055 0.521,-0.057L0.528,-0.003C0.506,0.007 0.482,0.012 0.456,0.012C0.411,0.012 0.382,-0.014 0.37,-0.067ZM0.355,-0.12L0.355,-0.257L0.323,-0.258C0.271,-0.258 0.228,-0.248 0.195,-0.228C0.163,-0.208 0.146,-0.181 0.146,-0.149C0.146,-0.126 0.155,-0.106 0.171,-0.09C0.187,-0.074 0.207,-0.066 0.23,-0.066C0.271,-0.066 0.312,-0.084 0.355,-0.12Z" style="fill:rgb(35,31,32);fill-rule:nonzero;"/>
            </g>
            <g transform="matrix(12.7438,0,0,35.1074,75.7439,419.719)">
                <path d="M0.206,0L0.009,-0.53L0.105,-0.53L0.259,-0.118L0.422,-0.53L0.512,-0.53L0.302,0L0.206,0Z" style="fill:rgb(35,31,32);fill-rule:nonzero;"/>
            </g>
            <g transform="matrix(12.7438,0,0,35.1074,81.4302,419.719)">
                <path d="M0.37,-0.067C0.312,-0.014 0.257,0.012 0.203,0.012C0.159,0.012 0.123,-0.002 0.094,-0.029C0.065,-0.057 0.05,-0.091 0.05,-0.133C0.05,-0.191 0.075,-0.236 0.123,-0.267C0.172,-0.298 0.242,-0.313 0.333,-0.313L0.355,-0.313L0.355,-0.377C0.355,-0.439 0.324,-0.47 0.261,-0.47C0.21,-0.47 0.155,-0.454 0.096,-0.423L0.096,-0.502C0.161,-0.529 0.222,-0.542 0.278,-0.542C0.338,-0.542 0.381,-0.529 0.409,-0.502C0.438,-0.475 0.452,-0.434 0.452,-0.377L0.452,-0.137C0.452,-0.082 0.469,-0.055 0.502,-0.055C0.507,-0.055 0.513,-0.055 0.521,-0.057L0.528,-0.003C0.506,0.007 0.482,0.012 0.456,0.012C0.411,0.012 0.382,-0.014 0.37,-0.067ZM0.355,-0.12L0.355,-0.257L0.323,-0.258C0.271,-0.258 0.228,-0.248 0.195,-0.228C0.163,-0.208 0.146,-0.181 0.146,-0.149C0.146,-0.126 0.155,-0.106 0.171,-0.09C0.187,-0.074 0.207,-0.066 0.23,-0.066C0.271,-0.066 0.312,-0.084 0.355,-0.12Z" style="fill:rgb(35,31,32);fill-rule:nonzero;"/>
            </g>
            <g transform="matrix(12.7438,0,0,35.1074,90.6808,419.719)">
                <path d="M0.255,0.012C0.207,0.012 0.168,-0.002 0.141,-0.03C0.114,-0.058 0.1,-0.097 0.1,-0.146L0.1,-0.458L0.034,-0.458L0.034,-0.53L0.1,-0.53L0.1,-0.626L0.196,-0.636L0.196,-0.53L0.335,-0.53L0.335,-0.458L0.196,-0.458L0.196,-0.164C0.196,-0.095 0.226,-0.06 0.286,-0.06C0.299,-0.06 0.314,-0.062 0.333,-0.066L0.333,0C0.303,0.008 0.277,0.012 0.255,0.012Z" style="fill:rgb(35,31,32);fill-rule:nonzero;"/>
            </g>
            <g transform="matrix(12.7438,0,0,35.1074,94.5377,419.719)">
                <path d="M0.428,0L0.428,-0.1C0.377,-0.025 0.315,0.012 0.242,0.012C0.195,0.012 0.159,-0.002 0.131,-0.031C0.104,-0.061 0.09,-0.1 0.09,-0.149L0.09,-0.53L0.187,-0.53L0.187,-0.181C0.187,-0.141 0.192,-0.113 0.204,-0.096C0.215,-0.079 0.235,-0.071 0.262,-0.071C0.32,-0.071 0.376,-0.109 0.428,-0.187L0.428,-0.53L0.524,-0.53L0.524,0L0.428,0Z" style="fill:rgb(35,31,32);fill-rule:nonzero;"/>
            </g>
            <g transform="matrix(12.7438,0,0,35.1074,101.537,419.719)">
                <path d="M0.237,0.012C0.193,0.012 0.139,0.002 0.077,-0.019L0.077,-0.107C0.139,-0.076 0.194,-0.06 0.241,-0.06C0.268,-0.06 0.291,-0.068 0.31,-0.083C0.328,-0.097 0.337,-0.116 0.337,-0.139C0.337,-0.172 0.311,-0.199 0.26,-0.22L0.204,-0.244C0.121,-0.279 0.08,-0.328 0.08,-0.393C0.08,-0.439 0.096,-0.476 0.129,-0.502C0.161,-0.529 0.206,-0.542 0.263,-0.542C0.293,-0.542 0.329,-0.538 0.373,-0.53L0.393,-0.526L0.393,-0.446C0.339,-0.462 0.297,-0.47 0.265,-0.47C0.203,-0.47 0.172,-0.447 0.172,-0.402C0.172,-0.373 0.196,-0.349 0.243,-0.329L0.289,-0.31C0.341,-0.287 0.379,-0.264 0.4,-0.24C0.422,-0.215 0.433,-0.184 0.433,-0.147C0.433,-0.101 0.415,-0.063 0.378,-0.033C0.341,-0.003 0.294,0.012 0.237,0.012Z" style="fill:rgb(35,31,32);fill-rule:nonzero;"/>
            </g>
            <g transform="matrix(12.7438,0,0,35.1074,110.246,419.719)">
                <path d="M0.096,0L0.096,-0.53L0.192,-0.53L0.192,-0.431C0.239,-0.505 0.299,-0.542 0.373,-0.542C0.444,-0.542 0.492,-0.505 0.518,-0.431C0.564,-0.505 0.623,-0.542 0.696,-0.542C0.743,-0.542 0.779,-0.529 0.805,-0.501C0.83,-0.474 0.843,-0.435 0.843,-0.386L0.843,0L0.747,0L0.747,-0.371C0.747,-0.431 0.723,-0.461 0.675,-0.461C0.625,-0.461 0.573,-0.426 0.518,-0.355L0.518,0L0.421,0L0.421,-0.371C0.421,-0.431 0.397,-0.462 0.348,-0.462C0.3,-0.462 0.248,-0.426 0.192,-0.355L0.192,0L0.096,0Z" style="fill:rgb(35,31,32);fill-rule:nonzero;"/>
            </g>
            <g transform="matrix(12.7438,0,0,35.1074,121.234,419.719)">
                <path d="M0.37,-0.067C0.312,-0.014 0.257,0.012 0.203,0.012C0.159,0.012 0.123,-0.002 0.094,-0.029C0.065,-0.057 0.05,-0.091 0.05,-0.133C0.05,-0.191 0.075,-0.236 0.123,-0.267C0.172,-0.298 0.242,-0.313 0.333,-0.313L0.355,-0.313L0.355,-0.377C0.355,-0.439 0.324,-0.47 0.261,-0.47C0.21,-0.47 0.155,-0.454 0.096,-0.423L0.096,-0.502C0.161,-0.529 0.222,-0.542 0.278,-0.542C0.338,-0.542 0.381,-0.529 0.409,-0.502C0.438,-0.475 0.452,-0.434 0.452,-0.377L0.452,-0.137C0.452,-0.082 0.469,-0.055 0.502,-0.055C0.507,-0.055 0.513,-0.055 0.521,-0.057L0.528,-0.003C0.506,0.007 0.482,0.012 0.456,0.012C0.411,0.012 0.382,-0.014 0.37,-0.067ZM0.355,-0.12L0.355,-0.257L0.323,-0.258C0.271,-0.258 0.228,-0.248 0.195,-0.228C0.163,-0.208 0.146,-0.181 0.146,-0.149C0.146,-0.126 0.155,-0.106 0.171,-0.09C0.187,-0.074 0.207,-0.066 0.23,-0.066C0.271,-0.066 0.312,-0.084 0.355,-0.12Z" style="fill:rgb(35,31,32);fill-rule:nonzero;"/>
            </g>
            <g transform="matrix(12.7438,0,0,35.1074,127.362,419.719)">
                <path d="M0.096,0L0.096,-0.53L0.192,-0.53L0.192,-0.431C0.243,-0.505 0.305,-0.542 0.379,-0.542C0.425,-0.542 0.461,-0.527 0.489,-0.498C0.516,-0.469 0.53,-0.43 0.53,-0.381L0.53,0L0.434,0L0.434,-0.35C0.434,-0.389 0.428,-0.417 0.416,-0.434C0.405,-0.451 0.386,-0.459 0.359,-0.459C0.3,-0.459 0.244,-0.42 0.192,-0.343L0.192,0L0.096,0Z" style="fill:rgb(35,31,32);fill-rule:nonzero;"/>
            </g>
            <g transform="matrix(12.7438,0,0,35.1074,134.361,419.719)">
                <path d="M0.304,0.012C0.228,0.012 0.167,-0.013 0.122,-0.063C0.077,-0.114 0.054,-0.181 0.054,-0.265C0.054,-0.35 0.077,-0.418 0.122,-0.468C0.168,-0.517 0.229,-0.542 0.307,-0.542C0.385,-0.542 0.447,-0.517 0.492,-0.468C0.537,-0.418 0.56,-0.351 0.56,-0.266C0.56,-0.18 0.537,-0.111 0.492,-0.062C0.446,-0.013 0.383,0.012 0.304,0.012ZM0.305,-0.06C0.407,-0.06 0.458,-0.129 0.458,-0.266C0.458,-0.402 0.408,-0.47 0.307,-0.47C0.207,-0.47 0.157,-0.402 0.157,-0.265C0.157,-0.128 0.206,-0.06 0.305,-0.06Z" style="fill:rgb(35,31,32);fill-rule:nonzero;"/>
            </g>
            <g transform="matrix(12.7438,0,0,35.1074,141.28,419.719)">
                <path d="M0.237,0.012C0.193,0.012 0.139,0.002 0.077,-0.019L0.077,-0.107C0.139,-0.076 0.194,-0.06 0.241,-0.06C0.268,-0.06 0.291,-0.068 0.31,-0.083C0.328,-0.097 0.337,-0.116 0.337,-0.139C0.337,-0.172 0.311,-0.199 0.26,-0.22L0.204,-0.244C0.121,-0.279 0.08,-0.328 0.08,-0.393C0.08,-0.439 0.096,-0.476 0.129,-0.502C0.161,-0.529 0.206,-0.542 0.263,-0.542C0.293,-0.542 0.329,-0.538 0.373,-0.53L0.393,-0.526L0.393,-0.446C0.339,-0.462 0.297,-0.47 0.265,-0.47C0.203,-0.47 0.172,-0.447 0.172,-0.402C0.172,-0.373 0.196,-0.349 0.243,-0.329L0.289,-0.31C0.341,-0.287 0.379,-0.264 0.4,-0.24C0.422,-0.215 0.433,-0.184 0.433,-0.147C0.433,-0.101 0.415,-0.063 0.378,-0.033C0.341,-0.003 0.294,0.012 0.237,0.012Z" style="fill:rgb(35,31,32);fill-rule:nonzero;"/>
            </g>
            <g transform="matrix(12.7438,0,0,35.1074,149.989,419.719)">
                <path d="M0.303,0.012C0.232,0.012 0.172,-0.014 0.125,-0.067C0.078,-0.12 0.054,-0.187 0.054,-0.268C0.054,-0.354 0.078,-0.422 0.124,-0.47C0.171,-0.518 0.236,-0.542 0.32,-0.542C0.361,-0.542 0.407,-0.536 0.458,-0.525L0.458,-0.444C0.404,-0.46 0.36,-0.468 0.326,-0.468C0.277,-0.468 0.237,-0.45 0.207,-0.413C0.177,-0.376 0.163,-0.327 0.163,-0.265C0.163,-0.206 0.178,-0.157 0.208,-0.121C0.239,-0.084 0.279,-0.065 0.329,-0.065C0.373,-0.065 0.418,-0.077 0.464,-0.099L0.464,-0.016C0.402,0.003 0.348,0.012 0.303,0.012Z" style="fill:rgb(35,31,32);fill-rule:nonzero;"/>
            </g>
            <g transform="matrix(12.7438,0,0,35.1074,155.607,419.719)">
                <path d="M0.304,0.012C0.228,0.012 0.167,-0.013 0.122,-0.063C0.077,-0.114 0.054,-0.181 0.054,-0.265C0.054,-0.35 0.077,-0.418 0.122,-0.468C0.168,-0.517 0.229,-0.542 0.307,-0.542C0.385,-0.542 0.447,-0.517 0.492,-0.468C0.537,-0.418 0.56,-0.351 0.56,-0.266C0.56,-0.18 0.537,-0.111 0.492,-0.062C0.446,-0.013 0.383,0.012 0.304,0.012ZM0.305,-0.06C0.407,-0.06 0.458,-0.129 0.458,-0.266C0.458,-0.402 0.408,-0.47 0.307,-0.47C0.207,-0.47 0.157,-0.402 0.157,-0.265C0.157,-0.128 0.206,-0.06 0.305,-0.06Z" style="fill:rgb(35,31,32);fill-rule:nonzero;"/>
            </g>
            <g transform="matrix(12.7438,0,0,35.1074,162.525,419.719)">
                <path d="M0.096,0L0.096,-0.53L0.192,-0.53L0.192,-0.431C0.243,-0.505 0.305,-0.542 0.379,-0.542C0.425,-0.542 0.461,-0.527 0.489,-0.498C0.516,-0.469 0.53,-0.43 0.53,-0.381L0.53,0L0.434,0L0.434,-0.35C0.434,-0.389 0.428,-0.417 0.416,-0.434C0.405,-0.451 0.386,-0.459 0.359,-0.459C0.3,-0.459 0.244,-0.42 0.192,-0.343L0.192,0L0.096,0Z" style="fill:rgb(35,31,32);fill-rule:nonzero;"/>
            </g>
            <g transform="matrix(12.7438,0,0,35.1074,172.647,419.719)">
                <path d="M0.303,0.012C0.232,0.012 0.172,-0.014 0.125,-0.067C0.078,-0.12 0.054,-0.187 0.054,-0.268C0.054,-0.354 0.078,-0.422 0.124,-0.47C0.171,-0.518 0.236,-0.542 0.32,-0.542C0.361,-0.542 0.407,-0.536 0.458,-0.525L0.458,-0.444C0.404,-0.46 0.36,-0.468 0.326,-0.468C0.277,-0.468 0.237,-0.45 0.207,-0.413C0.177,-0.376 0.163,-0.327 0.163,-0.265C0.163,-0.206 0.178,-0.157 0.208,-0.121C0.239,-0.084 0.279,-0.065 0.329,-0.065C0.373,-0.065 0.418,-0.077 0.464,-0.099L0.464,-0.016C0.402,0.003 0.348,0.012 0.303,0.012Z" style="fill:rgb(35,31,32);fill-rule:nonzero;"/>
            </g>
            <g transform="matrix(12.7438,0,0,35.1074,178.265,419.719)">
                <rect x="0.096" y="-0.771" width="0.096" height="0.771" style="fill:rgb(35,31,32);fill-rule:nonzero;"/>
            </g>
            <g transform="matrix(12.7438,0,0,35.1074,181.039,419.719)">
                <path d="M0.304,0.012C0.228,0.012 0.167,-0.013 0.122,-0.063C0.077,-0.114 0.054,-0.181 0.054,-0.265C0.054,-0.35 0.077,-0.418 0.122,-0.468C0.168,-0.517 0.229,-0.542 0.307,-0.542C0.385,-0.542 0.447,-0.517 0.492,-0.468C0.537,-0.418 0.56,-0.351 0.56,-0.266C0.56,-0.18 0.537,-0.111 0.492,-0.062C0.446,-0.013 0.383,0.012 0.304,0.012ZM0.305,-0.06C0.407,-0.06 0.458,-0.129 0.458,-0.266C0.458,-0.402 0.408,-0.47 0.307,-0.47C0.207,-0.47 0.157,-0.402 0.157,-0.265C0.157,-0.128 0.206,-0.06 0.305,-0.06Z" style="fill:rgb(35,31,32);fill-rule:nonzero;"/>
            </g>
            <g transform="matrix(12.7438,0,0,35.1074,187.957,419.719)">
                <path d="M0.096,0L0.096,-0.53L0.192,-0.53L0.192,-0.431C0.23,-0.505 0.286,-0.542 0.358,-0.542C0.368,-0.542 0.378,-0.541 0.389,-0.54L0.389,-0.45C0.373,-0.455 0.358,-0.458 0.345,-0.458C0.284,-0.458 0.233,-0.422 0.192,-0.35L0.192,0L0.096,0Z" style="fill:rgb(35,31,32);fill-rule:nonzero;"/>
            </g>
            <g transform="matrix(12.7438,0,0,35.1074,192.262,419.719)">
                <path d="M0.304,0.012C0.228,0.012 0.167,-0.013 0.122,-0.063C0.077,-0.114 0.054,-0.181 0.054,-0.265C0.054,-0.35 0.077,-0.418 0.122,-0.468C0.168,-0.517 0.229,-0.542 0.307,-0.542C0.385,-0.542 0.447,-0.517 0.492,-0.468C0.537,-0.418 0.56,-0.351 0.56,-0.266C0.56,-0.18 0.537,-0.111 0.492,-0.062C0.446,-0.013 0.383,0.012 0.304,0.012ZM0.305,-0.06C0.407,-0.06 0.458,-0.129 0.458,-0.266C0.458,-0.402 0.408,-0.47 0.307,-0.47C0.207,-0.47 0.157,-0.402 0.157,-0.265C0.157,-0.128 0.206,-0.06 0.305,-0.06Z" style="fill:rgb(35,31,32);fill-rule:nonzero;"/>
            </g>
            <g transform="matrix(12.7438,0,0,35.1074,199.18,419.719)">
                <rect x="0.098" y="-0.121" width="0.121" height="0.121" style="fill:rgb(35,31,32);fill-rule:nonzero;"/>
            </g>
        </g>
    </g>
</svg>
